rospo-light/16x16/actions/starred.svg

<svg height="16" viewBox="0 0 16 16" width="16" xmlns="http://www.w3.org/2000/svg"><path d="m8 .39257812-2.1171875 5.49414068-5.8828125.3164062 4.5722656 3.7148438-1.515625 5.6914062 4.9433594-3.201172.9941406.644531v-2.052734h2.0000004v-2h1.564453l3.441406-2.796875-5.880859-.3164062zm3.990234 9.60742188v2h-1.9999996v2h1.9999996v2h2v-2h2v-2h-2v-2z" fill="#5c616c"/></svg>

<?xml version="1.0" encoding="UTF-8" standalone="no"?>
<svg xmlns="http://www.w3.org/2000/svg" width="22" height="22" viewBox="0 0 22 22">
 <defs>
  <style type="text/css" id="current-color-scheme">
   .ColorScheme-Text { color:#5c616c; } .ColorScheme-Highlight { color:#5294e2; }
  </style>
 </defs>
 <path style="fill:currentColor;opacity:1" class="ColorScheme-Text" transform="translate(3 3)" d="M 8 0.39257812 L 5.8828125 5.8867188 L 0 6.203125 L 4.5722656 9.9179688 L 3.0566406 15.609375 L 8 12.408203 L 8.9941406 13.052734 L 8.9941406 11 L 10.994141 11 L 10.994141 9 L 12.558594 9 L 16 6.203125 L 10.119141 5.8867188 L 8 0.39257812 z M 11.990234 10 L 11.990234 12 L 9.9902344 12 L 9.9902344 14 L 11.990234 14 L 11.990234 16 L 13.990234 16 L 13.990234 14 L 15.990234 14 L 15.990234 12 L 13.990234 12 L 13.990234 10 L 11.990234 10 z"/>
</svg>
